;FLAVOR:Marlin
;TIME:5159
;Filament used: 2.76405m
;Layer height: 0.1
;MINX:76.4
;MINY:86.4
;MINZ:0.3
;MAXX:143.6
;MAXY:133.6
;MAXZ:15
;Generated with Cura_SteamEngine 4.6.2
M104 S210
M105
M109 S210
M82 ;absolute extrusion mode
G28 ;Home
G1 Z15.0 F6000 ;Move the platform down 15mm
;Prime the extruder
G92 E0
G1 F200 E3
G92 E0
G92 E0
G92 E0
G1 F1500 E-6.5
;LAYER_COUNT:148
;LAYER:0
M107
G0 F3600 X140.54 Y86.857 Z0.3
;TYPE:SKIRT
G1 F1500 E0
G1 F1800 X141.03 Y86.983 E0.02524
G1 X141.494 Y87.185 E0.05049
G1 X141.92 Y87.457 E0.07571
G1 X142.298 Y87.792 E0.1009
G1 X142.618 Y88.183 E0.12611
G1 X142.873 Y88.62 E0.15135
G1 X143.056 Y89.091 E0.17656
G1 X143.163 Y89.585 E0.20178
G1 X143.199 Y90.24 E0.23451
G1 X143.2 Y129.304 E2.18342
G1 X143.191 Y130.031 E2.21969
G1 X143.145 Y130.534 E2.24489
G1 X143.02 Y131.024 E2.27012
G1 X142.819 Y131.488 E2.29535
G1 X142.548 Y131.915 E2.32058
G1 X142.213 Y132.294 E2.34582
G1 X141.823 Y132.615 E2.37102
G1 X141.387 Y132.871 E2.39624
G1 X140.916 Y133.054 E2.42145
G1 X140.422 Y133.162 E2.44668
G1 X139.76 Y133.199 E2.47976
G1 X80.666 Y133.2 E5.42797
G1 X79.968 Y133.191 E5.46279
G1 X79.464 Y133.144 E5.48805
G1 X78.974 Y133.019 E5.51328
G1 X78.51 Y132.818 E5.5385
G1 X78.084 Y132.547 E5.56369
G1 X77.705 Y132.212 E5.58893
G1 X77.384 Y131.821 E5.61417
G1 X77.129 Y131.385 E5.63937
G1 X76.945 Y130.914 E5.6646
G1 X76.838 Y130.42 E5.68981
G1 X76.801 Y129.744 E5.72359
G1 X76.8 Y90.631 E7.67494
G1 X76.809 Y89.966 E7.70812
G1 X76.856 Y89.462 E7.73338
G1 X76.982 Y88.973 E7.75857
G1 X77.183 Y88.509 E7.7838
G1 X77.454 Y88.082 E7.80903
G1 X77.789 Y87.704 E7.83423
G1 X78.18 Y87.383 E7.85947
G1 X78.617 Y87.128 E7.88471
G1 X79.088 Y86.944 E7.90994
G1 X79.582 Y86.838 E7.93515
G1 X80.24 Y86.801 E7.96802
G1 X139.339 Y86.8 E10.91649
G1 X140.037 Y86.81 E10.95131
G1 X140.54 Y86.857 E10.97652
G0 F3600 X140.577 Y86.458
G1 F1800 X141.098 Y86.584 E11.00326
G1 X141.595 Y86.787 E11.03004
G1 X142.056 Y87.061 E11.0568
G1 X142.471 Y87.4 E11.08353
G1 X142.831 Y87.798 E11.11031
G1 X143.128 Y88.244 E11.13704
G1 X143.356 Y88.73 E11.16382
G1 X143.508 Y89.244 E11.19056
G1 X143.59 Y89.909 E11.22399
G1 X143.6 Y129.309 E13.18967
G1 X143.591 Y130.036 E13.22594
G1 X143.544 Y130.57 E13.25268
G1 X143.419 Y131.091 E13.27941
G1 X143.217 Y131.588 E13.30618
G1 X142.944 Y132.05 E13.33295
G1 X142.606 Y132.466 E13.35969
G1 X142.209 Y132.827 E13.38646
G1 X141.763 Y133.125 E13.41322
G1 X141.278 Y133.353 E13.43996
G1 X140.764 Y133.507 E13.46673
G1 X140.092 Y133.59 E13.50051
G1 X80.661 Y133.6 E16.46554
G1 X79.963 Y133.591 E16.50036
G1 X79.428 Y133.544 E16.52716
G1 X78.907 Y133.418 E16.5539
G1 X78.41 Y133.216 E16.58066
G1 X77.949 Y132.943 E16.60739
G1 X77.533 Y132.604 E16.63417
G1 X77.172 Y132.208 E16.6609
G1 X76.874 Y131.762 E16.68766
G1 X76.646 Y131.276 E16.71444
G1 X76.493 Y130.762 E16.7412
G1 X76.41 Y130.088 E16.77508
G1 X76.4 Y90.625 E18.7439
G1 X76.409 Y89.96 E18.77708
G1 X76.457 Y89.426 E18.80383
G1 X76.583 Y88.905 E18.83057
G1 X76.785 Y88.408 E18.85733
G1 X77.058 Y87.947 E18.88406
G1 X77.397 Y87.531 E18.91083
G1 X77.794 Y87.171 E18.93757
G1 X78.241 Y86.873 E18.96437
G1 X78.726 Y86.645 E18.99111
G1 X79.24 Y86.492 E19.01787
G1 X79.908 Y86.41 E19.05144
G1 X139.345 Y86.4 E22.01677
G1 X140.043 Y86.41 E22.05159
G1 X140.577 Y86.458 E22.07834
G1 F1500 E15.57834
;MESH:TopFrontWheelSupport.STL
G0 F3600 X139.386 Y89.335
G0 X139.386 Y90.614
G0 X131.987 Y93.295
G0 X131.987 Y93.395
;TYPE:WALL-INNER
G1 F1500 E22.07834
G1 F1800 X131.335 Y93.486 E22.11119
G1 X130.909 Y93.639 E22.13377
G1 X130.529 Y93.855 E22.15558
G1 X130.185 Y94.138 E22.1778
G1 X129.896 Y94.471 E22.1998
G1 X129.668 Y94.849 E22.22182
G1 X129.507 Y95.259 E22.2438
G1 X129.417 Y95.691 E22.26581
G1 X129.403 Y96.133 E22.28787
G1 X129.462 Y96.569 E22.30983
G1 X129.595 Y96.989 E22.3318
G1 X129.797 Y97.384 E22.35394
G1 X130.063 Y97.735 E22.37591
G1 X130.383 Y98.037 E22.39786
G1 X130.751 Y98.281 E22.41989
G1 X131.155 Y98.46 E22.44194
G1 X131.582 Y98.566 E22.46389
G1 X132.022 Y98.602 E22.48591
G1 X132.461 Y98.56 E22.50791
G1 X132.888 Y98.445 E22.52998
G1 X133.288 Y98.258 E22.552
G1 X133.65 Y98.009 E22.57392
G1 X133.966 Y97.702 E22.5959
G1 X134.226 Y97.346 E22.6179
G1 X134.422 Y96.949 E22.63999
G1 X134.547 Y96.525 E22.66204
G1 X134.599 Y96.089 E22.68395
G1 X134.577 Y95.647 E22.70603
G1 X134.48 Y95.217 E22.72802
G1 X134.313 Y94.812 E22.74987
G1 X134.086 Y94.445 E22.7714
G1 X133.794 Y94.115 E22.79339
G1 X133.438 Y93.834 E22.81601
G1 X133.051 Y93.621 E22.83805
G1 X132.623 Y93.474 E22.86063
G1 X131.987 Y93.395 E22.8926
G0 F3600 X131.987 Y93.295
G0 X130.893 Y93.603
G0 X112.438 Y109.688
G0 X112.339 Y109.7
G1 F1800 X112.113 Y108.96 E22.93121
G1 X111.865 Y108.565 E22.95447
G1 X111.337 Y108.061 E22.99089
G1 X110.929 Y107.838 E23.01409
G1 X110.221 Y107.656 E23.05056
G1 X109.757 Y107.659 E23.07371
G1 X109.051 Y107.844 E23.11012
G1 X108.646 Y108.075 E23.13338
G1 X108.12 Y108.581 E23.16979
G1 X107.879 Y108.98 E23.19305
G1 X107.661 Y109.702 E23.23068
G1 X107.693 Y110.474 E23.26923
G1 X107.834 Y110.918 E23.29247
G1 X108.217 Y111.539 E23.32887
G1 X108.556 Y111.858 E23.35209
G1 X109.195 Y112.213 E23.38856
G1 X109.62 Y112.32 E23.41042
G1 X110.003 Y112.353 E23.4296
G1 X110.44 Y112.312 E23.4515
G1 X111.128 Y112.067 E23.48794
G1 X111.512 Y111.804 E23.51116
G1 X111.993 Y111.254 E23.54761
G1 X112.189 Y110.859 E23.56961
G1 X112.31 Y110.453 E23.59075
G1 X112.339 Y109.7 E23.62834
G0 F3600 X112.438 Y109.688
G0 X131.987 Y121.295
G0 X131.987 Y121.395
G1 F1800 X131.335 Y121.486 E23.66118
G1 X130.909 Y121.639 E23.68377
G1 X130.525 Y121.858 E23.70582
G1 X130.185 Y122.137 E23.72776
G1 X129.896 Y122.471 E23.7498
G1 X129.668 Y122.849 E23.77182
G1 X129.507 Y123.259 E23.7938
G1 X129.417 Y123.691 E23.81581
G1 X129.403 Y124.133 E23.83788
G1 X129.462 Y124.569 E23.85983
G1 X129.595 Y124.989 E23.88181
G1 X129.797 Y125.383 E23.90389
G1 X130.059 Y125.732 E23.92567
G1 X130.384 Y126.038 E23.94794
G1 X130.751 Y126.281 E23.9699
G1 X131.155 Y126.46 E23.99194
G1 X131.582 Y126.566 E24.01389
G1 X132.022 Y126.602 E24.03592
G1 X132.461 Y126.56 E24.05792
G1 X132.888 Y126.445 E24.07998
G1 X133.288 Y126.258 E24.10201
G1 X133.65 Y126.009 E24.12393
G1 X133.966 Y125.702 E24.14591
G1 X134.226 Y125.346 E24.1679
G1 X134.422 Y124.949 E24.18999
G1 X134.547 Y124.525 E24.21205
G1 X134.599 Y124.089 E24.23395
G1 X134.577 Y123.647 E24.25603
G1 X134.48 Y123.217 E24.27802
G1 X134.313 Y122.812 E24.29988
G1 X134.086 Y122.445 E24.32141
G1 X133.784 Y122.107 E24.34402
G1 X133.438 Y121.833 E24.36604
G1 X133.051 Y121.621 E24.38806
G1 X132.623 Y121.474 E24.41063
G1 X131.987 Y121.395 E24.44261
G0 F3600 X131.987 Y121.295
G0 X87.987 Y121.295
G0 X87.987 Y121.395
G1 F1800 X87.335 Y121.486 E24.47545
G1 X86.909 Y121.639 E24.49803
G1 X86.525 Y121.858 E24.52009
G1 X86.185 Y122.137 E24.54203
G1 X85.896 Y122.471 E24.56407
G1 X85.668 Y122.849 E24.58609
G1 X85.507 Y123.259 E24.60806
G1 X85.417 Y123.691 E24.63008
G1 X85.403 Y124.133 E24.65214
G1 X85.462 Y124.569 E24.67409
G1 X85.595 Y124.989 E24.69607
G1 X85.797 Y125.383 E24.71816
G1 X86.059 Y125.732 E24.73993
G1 X86.384 Y126.038 E24.7622
G1 X86.751 Y126.281 E24.78416
G1 X87.155 Y126.46 E24.80621
G1 X87.582 Y126.566 E24.82816
G1 X88.022 Y126.602 E24.85018
G1 X88.461 Y126.56 E24.87219
G1 X88.887 Y126.445 E24.8942
G1 X89.286 Y126.26 E24.91614
G1 X89.64 Y126.02 E24.93748
G1 X89.966 Y125.702 E24.9602
G1 X90.226 Y125.346 E24.98219
G1 X90.422 Y124.949 E25.00428
G1 X90.547 Y124.525 E25.02634
G1 X90.599 Y124.089 E25.04824
G1 X90.577 Y123.647 E25.07032
G1 X90.48 Y123.217 E25.09231
G1 X90.312 Y122.811 E25.11423
G1 X90.079 Y122.437 E25.13622
G1 X89.784 Y122.107 E25.1583
G1 X89.438 Y121.833 E25.18032
G1 X89.051 Y121.621 E25.20233
G1 X88.623 Y121.474 E25.22491
G1 X87.987 Y121.395 E25.25689
G0 F3600 X87.987 Y121.295
G0 X86.893 Y121.603
G0 X86.158 Y122.109
G0 X80.67 Y129.33
G0 X80.6 Y129.4
G1 F1800 X80.6 Y90.6 E27.19262
G1 X139.4 Y90.6 E30.12617
G1 X139.4 Y129.4 E32.06191
G1 X80.6 Y129.4 E34.99545
G0 F3600 X80.67 Y129.33
G0 X85.469 Y95.248
G0 X85.864 Y94.448
G0 X86.507 Y93.823
G0 X87.987 Y93.295
G0 X87.987 Y93.395
G1 F1800 X87.335 Y93.486 E35.0283
G1 X86.909 Y93.639 E35.05088
G1 X86.529 Y93.855 E35.07269
G1 X86.185 Y94.138 E35.09491
G1 X85.896 Y94.471 E35.11691
G1 X85.668 Y94.849 E35.13893
G1 X85.507 Y95.259 E35.16091
G1 X85.417 Y95.691 E35.18292
G1 X85.403 Y96.133 E35.20498
G1 X85.462 Y96.569 E35.22693
G1 X85.595 Y96.989 E35.24891
G1 X85.797 Y97.384 E35.27105
G1 X86.063 Y97.735 E35.29302
G1 X86.383 Y98.037 E35.31497
G1 X86.751 Y98.281 E35.337
G1 X87.155 Y98.46 E35.35905
G1 X87.582 Y98.566 E35.381
G1 X88.022 Y98.602 E35.40302
G1 X88.461 Y98.56 E35.42502
G1 X88.888 Y98.445 E35.44708
G1 X89.288 Y98.258 E35.46911
G1 X89.65 Y98.009 E35.49103
G1 X89.966 Y97.702 E35.51301
G1 X90.226 Y97.346 E35.53501
G1 X90.422 Y96.949 E35.5571
G1 X90.547 Y96.525 E35.57915
G1 X90.599 Y96.089 E35.60106
G1 X90.577 Y95.647 E35.62313
G1 X90.48 Y95.217 E35.64513
G1 X90.312 Y94.811 E35.66705
G1 X90.08 Y94.438 E35.68896
G1 X89.794 Y94.115 E35.71049
G1 X89.438 Y93.834 E35.73311
G1 X89.051 Y93.621 E35.75515
G1 X88.623 Y93.474 E35.77773
G1 X87.987 Y93.395 E35.8097
G0 F3600 X87.99 Y93.798
;TYPE:WALL-OUTER
G1 F1800 X87.432 Y93.876 E35.83781
G1 X87.077 Y94.004 E35.85664
G1 X86.756 Y94.186 E35.87505
G1 X86.465 Y94.425 E35.89384
G1 X86.221 Y94.707 E35.91244
G1 X86.028 Y95.027 E35.93108
G1 X85.892 Y95.374 E35.94968
G1 X85.816 Y95.739 E35.96828
G1 X85.804 Y96.112 E35.9869
G1 X85.854 Y96.481 E36.00548
G1 X85.966 Y96.837 E36.02409
G1 X86.137 Y97.17 E36.04277
G1 X86.362 Y97.467 E36.06136
G1 X86.633 Y97.723 E36.07996
G1 X86.944 Y97.929 E36.09857
G1 X87.285 Y98.08 E36.11718
G1 X87.647 Y98.17 E36.13579
G1 X88.019 Y98.2 E36.15441
G1 X88.39 Y98.165 E36.173
G1 X88.75 Y98.068 E36.1916
G1 X89.089 Y97.91 E36.21026
G1 X89.395 Y97.699 E36.2288
G1 X89.663 Y97.439 E36.24743
G1 X89.883 Y97.138 E36.26603
G1 X90.048 Y96.803 E36.28466
G1 X90.154 Y96.444 E36.30334
G1 X90.198 Y96.075 E36.32188
G1 X90.179 Y95.702 E36.34051
G1 X90.097 Y95.338 E36.35912
G1 X89.955 Y94.994 E36.37769
G1 X89.758 Y94.678 E36.39627
G1 X89.518 Y94.407 E36.41433
G1 X89.216 Y94.168 E36.43354
G1 X88.889 Y93.988 E36.45217
G1 X88.532 Y93.866 E36.47099
G1 X87.99 Y93.798 E36.49824
G0 F3600 X87.792 Y93.825
G0 X87.724 Y93.33
G0 X86.893 Y93.603
G0 X86.158 Y94.11
G0 X85.633 Y94.832
G0 X85.378 Y95.687
G0 X88.052 Y121.303
G0 X87.99 Y121.798
G1 F1800 X87.432 Y121.876 E36.52635
G1 X87.077 Y122.004 E36.54518
G1 X86.753 Y122.189 E36.56379
G1 X86.465 Y122.425 E36.58237
G1 X86.221 Y122.707 E36.60097
G1 X86.028 Y123.027 E36.61962
G1 X85.892 Y123.374 E36.63821
G1 X85.816 Y123.739 E36.65681
G1 X85.804 Y124.112 E36.67543
G1 X85.854 Y124.481 E36.69401
G1 X85.966 Y124.837 E36.71263
G1 X86.137 Y125.17 E36.7313
G1 X86.358 Y125.464 E36.74965
G1 X86.633 Y125.723 E36.7685
G1 X86.944 Y125.929 E36.78711
G1 X87.285 Y126.08 E36.80571
G1 X87.647 Y126.17 E36.82432
G1 X88.019 Y126.2 E36.84294
G1 X88.39 Y126.165 E36.86154
G1 X88.75 Y126.068 E36.88014
G1 X89.088 Y125.911 E36.89873
G1 X89.386 Y125.709 E36.91669
G1 X89.663 Y125.439 E36.93599
G1 X89.883 Y125.138 E36.95459
G1 X90.048 Y124.803 E36.97322
G1 X90.154 Y124.444 E36.99189
G1 X90.198 Y124.075 E37.01043
G1 X90.179 Y123.702 E37.02907
G1 X90.097 Y123.338 E37.04768
G1 X89.955 Y122.994 E37.06625
G1 X89.758 Y122.678 E37.08483
G1 X89.509 Y122.399 E37.10348
G1 X89.216 Y122.168 E37.1221
G1 X88.889 Y121.988 E37.14072
G1 X88.532 Y121.866 E37.15954
G1 X87.99 Y121.798 E37.1868
G0 F3600 X87.792 Y121.825
G0 X87.724 Y121.33
G0 X86.893 Y121.603
G0 X86.158 Y122.109
G0 X80.67 Y129.33
G0 X80.2 Y129.8
G1 F1800 X80.2 Y90.2 E39.16245
G1 X139.8 Y90.2 E42.1359
G1 X139.8 Y129.8 E44.11156
G1 X80.2 Y129.8 E47.08501
G0 F3600 X80.2 Y129.6
G0 X80.67 Y129.33
G0 X88.9 Y126.482
G0 X89.665 Y126.05
G0 X111.538 Y111.833
G0 X112.287 Y110.615
G0 X112.436 Y109.771
G0 X111.937 Y109.752
G1 F1800 X111.746 Y109.128 E47.11757
G1 X111.553 Y108.82 E47.1357
G1 X111.099 Y108.387 E47.167
G1 X110.781 Y108.213 E47.18509
G1 X110.172 Y108.056 E47.21646
G1 X109.81 Y108.059 E47.23453
G1 X109.203 Y108.218 E47.26583
G1 X108.887 Y108.398 E47.28397
G1 X108.435 Y108.833 E47.31527
G1 X108.247 Y109.144 E47.3334
G1 X108.063 Y109.753 E47.36514
G1 X108.09 Y110.404 E47.39765
G1 X108.2 Y110.75 E47.41576
G1 X108.53 Y111.284 E47.44708
G1 X108.794 Y111.533 E47.46518
G1 X109.343 Y111.838 E47.49652
G1 X109.686 Y111.924 E47.51416
G1 X110.001 Y111.951 E47.52993
G1 X110.353 Y111.918 E47.54757
G1 X110.945 Y111.708 E47.57891
G1 X111.244 Y111.503 E47.597
G1 X111.658 Y111.03 E47.62836
G1 X111.815 Y110.712 E47.64605
G1 X111.912 Y110.387 E47.66297
G1 X111.937 Y109.752 E47.69468
G0 F3600 X111.879 Y109.561
G0 X112.356 Y109.416
G0 X132.052 Y121.303
G0 X131.99 Y121.798
G1 F1800 X131.432 Y121.876 E47.72278
G1 X131.077 Y122.004 E47.74161
G1 X130.753 Y122.189 E47.76023
G1 X130.465 Y122.425 E47.7788
G1 X130.221 Y122.707 E47.79741
G1 X130.028 Y123.027 E47.81605
G1 X129.892 Y123.374 E47.83464
G1 X129.816 Y123.739 E47.85324
G1 X129.804 Y124.112 E47.87186
G1 X129.854 Y124.481 E47.89044
G1 X129.966 Y124.837 E47.90906
G1 X130.137 Y125.17 E47.92774
G1 X130.358 Y125.464 E47.94609
G1 X130.633 Y125.723 E47.96493
G1 X130.944 Y125.929 E47.98354
G1 X131.285 Y126.08 E48.00215
G1 X131.647 Y126.17 E48.02076
G1 X132.019 Y126.2 E48.03938
G1 X132.39 Y126.165 E48.05797
G1 X132.75 Y126.068 E48.07657
G1 X133.089 Y125.91 E48.09523
G1 X133.395 Y125.699 E48.11377
G1 X133.663 Y125.439 E48.1324
G1 X133.883 Y125.138 E48.151
G1 X134.048 Y124.803 E48.16963
G1 X134.154 Y124.444 E48.18831
G1 X134.198 Y124.075 E48.20685
G1 X134.179 Y123.702 E48.22548
G1 X134.097 Y123.338 E48.2441
G1 X133.956 Y122.995 E48.2626
G1 X133.764 Y122.685 E48.28079
G1 X133.509 Y122.399 E48.29991
G1 X133.216 Y122.168 E48.31852
G1 X132.889 Y121.988 E48.33714
G1 X132.532 Y121.866 E48.35597
G1 X131.99 Y121.798 E48.38322
G0 F3600 X131.792 Y121.825
G0 X131.724 Y121.33
G0 X134.638 Y96.09
G0 X134.518 Y95.205
G0 X134.118 Y94.422
G0 X133.067 Y93.585
G0 X132.052 Y93.303
G0 X131.99 Y93.798
G1 F1800 X131.432 Y93.876 E48.41133
G1 X131.077 Y94.004 E48.43016
G1 X130.756 Y94.186 E48.44857
G1 X130.465 Y94.425 E48.46735
G1 X130.221 Y94.707 E48.48596
G1 X130.028 Y95.027 E48.5046
G1 X129.892 Y95.374 E48.52319
G1 X129.816 Y95.739 E48.5418
G1 X129.804 Y96.112 E48.56041
G1 X129.854 Y96.481 E48.57899
G1 X129.966 Y96.837 E48.59761
G1 X130.137 Y97.17 E48.61629
G1 X130.362 Y97.467 E48.63488
G1 X130.633 Y97.723 E48.65347
G1 X130.944 Y97.929 E48.67209
G1 X131.285 Y98.08 E48.69069
G1 X131.647 Y98.17 E48.7093
G1 X132.019 Y98.2 E48.72792
G1 X132.39 Y98.165 E48.74651
G1 X132.75 Y98.068 E48.76511
G1 X133.089 Y97.91 E48.78377
G1 X133.395 Y97.699 E48.80232
G1 X133.663 Y97.439 E48.82095
G1 X133.883 Y97.138 E48.83955
G1 X134.048 Y96.803 E48.85818
G1 X134.154 Y96.444 E48.87685
G1 X134.198 Y96.075 E48.89539
G1 X134.179 Y95.702 E48.91402
G1 X134.097 Y95.338 E48.93264
G1 X133.956 Y94.995 E48.95114
G1 X133.764 Y94.685 E48.96933
G1 X133.518 Y94.407 E48.98785
G1 X133.216 Y94.168 E49.00707
G1 X132.889 Y93.988 E49.02569
G1 X132.532 Y93.866 E49.04451
G1 X131.99 Y93.798 E49.07177
G0 F3600 X131.792 Y93.825
G0 X131.983 Y93.001
;TYPE:SKIN
G1 F1800 X131.241 Y93.106 E49.10915
G1 X130.745 Y93.284 E49.13544
G1 X130.307 Y93.533 E49.16058
G1 X129.912 Y93.857 E49.18607
G1 X129.58 Y94.241 E49.21139
G1 X129.317 Y94.676 E49.23675
G1 X129.132 Y95.148 E49.26205
G1 X129.029 Y95.644 E49.28732
G1 X129.013 Y96.153 E49.31273
G1 X129.08 Y96.655 E49.33799
G1 X129.233 Y97.137 E49.36322
G1 X129.466 Y97.593 E49.38877
G1 X129.772 Y97.996 E49.41401
G1 X130.139 Y98.343 E49.43921
